app/dist/common/images/imdex-ltd.svg

<svg height="18" viewBox="0 0 18 18" width="18" xmlns="http://www.w3.org/2000/svg"><path d="m0 0h18v18h-18z" fill="#012643"/><path d="m6 6h-2v6h2zm1 6v-6h2.38l1.12 3.7 1.06-3.7h2.44v6h-2v-3.16l-.85 3.16h-1.33l-.82-3.16v3.16z" fill="#fff"/></svg>

<!-- by TradingView --><svg width="18" height="18" viewBox="0 0 18 18" xmlns="http://www.w3.org/2000/svg"><path fill="#012643" d="M0 0h18v18H0z"/><path d="M6 6H4v6h2V6Zm1 6V6h2.38l1.12 3.7L11.56 6H14v6h-2V8.84L11.15 12H9.82L9 8.84V12H7Z" fill="#fff"/></svg>
